X: 1
T: John of Badenyon
T: Old Time Wedding Reel #1, Cape Breton
C: Dunlay/Greenberg Collection
Z: Terry Traub 7-10-2003; merged with thesession.org's setting by John Chambers
R: reel
M: 4/4
K: Am
L: 1/8
B |\
"Am"AGEG AGEA | "Am"cdcA "G"G2GB | "Am"A2cd edcG | "Am"ABcd "Em"e2eg |\
"Am"abag "G"egdB | "C"cAGE c2cd | "C"edcA GEcE | "Dm"D2"Em"EG "Am"A3 :|
|: g |\
"Am"ageg agea | "G"gede g2gb | "Am"agea gbed | "Am"cAcd "Em"e2eg |\
"Am"abag "G"egdB | "C"cAGE c2cd | "C"edcA GEcE | "Dm"D2"Em"EG "Am"A3 :|
